X:93
T: Die neue Jagd
N: A0448
O: Europa, Mitteleuropa, Deutschland
N: Bueschings Volkslieder 1807 No. 74.
R: Romanze, Ballade, Lied, Jaegerlied
M: 3/8
L: 1/8
K: D
A, | D2D | EDE | FD
D | F2F | E2E | D2
A, | D2D | EDE | FD
D | F2F | E2E | D2
F | A2F | F2A | GE
E | G2G | F2F | E2
A, | D2D | EDE | FD
D | F2F | E2E | D2

@@@ Tune index: 406
